X:3
T:Dirty Bee
Z:robin.beech@mcgill.ca
S:Ross Ainslee and Jarlath Henderson
M:4/4
L:1/8
K:Aphr
BAGA cAGA | dcAG A2GA | BAGA cAGA | GAAG A2GA |
BAGA cAGA | dcAG A2GA | BAGA cAGA |1 GAAG A2GA :|2 dA=eA ^fAgA |:
K:D
a2fA defd | eAcd efge | a2fA defd | eAce d2fg |
a2fA defd | eAcd efge | a2fA defd |1 eAce d2fg :|2 cAce d2GA |]
